packages/rainbowkit/src/wallets/walletConnectors/imTokenWallet/imTokenWallet.svg

<svg width="512" height="512" viewBox="0 0 512 512" fill="none" xmlns="http://www.w3.org/2000/svg">
    <g clip-path="url(#clip0_11_1188)">
        <path
            d="M512 160C512 103.995 512 75.9921 501.101 54.6009C491.513 35.7847 476.215 20.4867 457.399 10.8993C436.008 0 408.005 0 352 0H160C103.995 0 75.9921 0 54.6009 10.8993C35.7847 20.4867 20.4867 35.7847 10.8993 54.6009C0 75.9921 0 103.995 0 160V352C0 408.005 0 436.008 10.8993 457.399C20.4867 476.215 35.7847 491.513 54.6009 501.101C75.9921 512 103.995 512 160 512H352C408.005 512 436.008 512 457.399 501.101C476.215 491.513 491.513 476.215 501.101 457.399C512 436.008 512 408.005 512 352V160Z"
            fill="url(#paint0_linear_11_1188)" />
        <path
            d="M425.708 148.325C436.954 300.64 339.046 372.63 251.275 380.308C169.673 387.444 92.8622 337.303 86.1236 260.265C80.5649 196.619 119.902 169.522 150.808 166.822C182.595 164.035 209.308 185.956 211.626 212.498C213.857 238.016 197.935 249.632 186.861 250.598C178.103 251.366 167.085 246.049 166.091 234.633C165.237 224.824 168.962 223.488 168.052 213.067C166.432 194.514 150.254 192.353 141.397 193.121C130.678 194.06 111.23 206.57 113.959 237.732C116.703 269.164 146.841 294.001 186.349 290.546C228.983 286.821 258.667 253.626 260.899 207.068C260.878 204.602 261.398 202.161 262.42 199.916L262.434 199.86C262.893 198.885 263.431 197.948 264.04 197.06C264.951 195.695 266.117 194.188 267.623 192.538C267.638 192.496 267.638 192.496 267.666 192.496C268.76 191.259 270.083 189.923 271.575 188.487C290.199 170.916 357.271 129.475 420.704 142.597C422.045 142.884 423.257 143.597 424.159 144.63C425.061 145.663 425.603 146.959 425.708 148.325Z"
            fill="white" />
    </g>
    <defs>
        <linearGradient id="paint0_linear_11_1188" x1="459.192" y1="122.156" x2="22.611" y2="297.091"
            gradientUnits="userSpaceOnUse">
            <stop stop-color="#0CC5FF" />
            <stop offset="1" stop-color="#007FFF" />
        </linearGradient>
        <clipPath id="clip0_11_1188">
            <rect width="512" height="512" fill="white" />
        </clipPath>
    </defs>
</svg>

<svg width="512" height="512" viewBox="0 0 512 512" fill="none" xmlns="http://www.w3.org/2000/svg"><g clip-path="url(#a)"><path d="M512 0H0v512h512V0Z" fill="url(#b)"/><path d="M425.708 148.325c11.246 152.315-86.662 224.305-174.433 231.983-81.602 7.136-158.413-43.005-165.152-120.043-5.558-63.646 33.778-90.743 64.684-93.443 31.787-2.787 58.5 19.134 60.818 45.676 2.231 25.518-13.691 37.134-24.765 38.1-8.758.768-19.776-4.549-20.77-15.965-.854-9.809 2.871-11.145 1.961-21.566-1.62-18.553-17.798-20.714-26.655-19.946-10.719.939-30.167 13.449-27.438 44.611 2.744 31.432 32.882 56.269 72.39 52.814 42.634-3.725 72.318-36.92 74.55-83.478-.021-2.466.499-4.907 1.521-7.152l.014-.056c.459-.975.997-1.912 1.606-2.8.911-1.365 2.077-2.872 3.583-4.522.015-.042.015-.042.043-.042 1.094-1.237 2.417-2.573 3.909-4.009 18.624-17.571 85.696-58.012 149.129-44.89a6.42 6.42 0 0 1 4.163 5.728Z" fill="#fff"/></g><defs><linearGradient id="b" x1="459.192" y1="122.156" x2="22.611" y2="297.091" gradientUnits="userSpaceOnUse"><stop stop-color="#0CC5FF"/><stop offset="1" stop-color="#007FFF"/></linearGradient><clipPath id="a"><path fill="#fff" d="M0 0h512v512H0z"/></clipPath></defs></svg>
